X: 30
T: 23
R: barndance
M: 4/4
K: Gminor
g6 g2|g6 f2|g6 Hd2|g6 g2|g5 f2|g6 Hd2|g6 g2|g2 a2 b2 a2|g2 f2 Hg2 Hd2|
g2 g2 g2 ab|g2 ag fe d2|e2 dB A2 HB2|AG AG ED E2|D2 F/E/F/E/ FD G2|{B}G2 G6||

